actions/symbolic/view-grid-symbolic.svg

<?xml version="1.0" encoding="UTF-8" standalone="no"?>
<svg
   height="16"
   width="16"
   version="1.1"
   id="svg6"
   xml:space="preserve"
   xmlns="http://www.w3.org/2000/svg"
   xmlns:svg="http://www.w3.org/2000/svg"><defs
     id="defs10" /><path
     id="rect4646"
     style="font-variation-settings:normal;opacity:1;vector-effect:none;fill:#555761;fill-opacity:1;stroke:none;stroke-width:1;stroke-linecap:round;stroke-linejoin:miter;stroke-miterlimit:4;stroke-dasharray:none;stroke-dashoffset:0;stroke-opacity:1;-inkscape-stroke:none;stop-color:#000000;stop-opacity:1"
     d="M 3.5 2 C 2.6690008 2 2 2.6690016 2 3.5 L 2 4.5 C 2 5.3309984 2.6690008 6 3.5 6 L 4.5 6 C 5.3309992 6 6 5.3309984 6 4.5 L 6 3.5 C 6 2.6690016 5.3309992 2 4.5 2 L 3.5 2 z M 11.5 2 C 10.669001 2 10 2.6690016 10 3.5 L 10 4.5 C 10 5.3309984 10.669001 6 11.5 6 L 12.5 6 C 13.330999 6 14 5.3309984 14 4.5 L 14 3.5 C 14 2.6690016 13.330999 2 12.5 2 L 11.5 2 z M 3.5 3 L 4.5 3 C 4.7769997 3 5 3.2230006 5 3.5 L 5 4.5 C 5 4.7769994 4.7769997 5 4.5 5 L 3.5 5 C 3.2230003 5 3 4.7769994 3 4.5 L 3 3.5 C 3 3.2230006 3.2230003 3 3.5 3 z M 11.5 3 L 12.5 3 C 12.777 3 13 3.2230006 13 3.5 L 13 4.5 C 13 4.7769994 12.777 5 12.5 5 L 11.5 5 C 11.223 5 11 4.7769994 11 4.5 L 11 3.5 C 11 3.2230006 11.223 3 11.5 3 z M 3.5 10 C 2.6690008 10 2 10.669002 2 11.5 L 2 12.5 C 2 13.330998 2.6690008 14 3.5 14 L 4.5 14 C 5.3309992 14 6 13.330998 6 12.5 L 6 11.5 C 6 10.669002 5.3309992 10 4.5 10 L 3.5 10 z M 11.5 10 C 10.669001 10 10 10.669002 10 11.5 L 10 12.5 C 10 13.330998 10.669001 14 11.5 14 L 12.5 14 C 13.330999 14 14 13.330998 14 12.5 L 14 11.5 C 14 10.669002 13.330999 10 12.5 10 L 11.5 10 z M 3.5 11 L 4.5 11 C 4.7769997 11 5 11.223 5 11.5 L 5 12.5 C 5 12.777 4.7769997 13 4.5 13 L 3.5 13 C 3.2230003 13 3 12.777 3 12.5 L 3 11.5 C 3 11.223 3.2230003 11 3.5 11 z M 11.5 11 L 12.5 11 C 12.777 11 13 11.223 13 11.5 L 13 12.5 C 13 12.777 12.777 13 12.5 13 L 11.5 13 C 11.223 13 11 12.777 11 12.5 L 11 11.5 C 11 11.223 11.223 11 11.5 11 z " /></svg>

<?xml version="1.0" encoding="UTF-8" standalone="no"?>
<svg
   height="16"
   width="16"
   version="1.1"
   id="svg6"
   xml:space="preserve"
   xmlns="http://www.w3.org/2000/svg"
   xmlns:svg="http://www.w3.org/2000/svg"><defs
     id="defs10" /><path
     id="rect4646"
     style="font-variation-settings:normal;opacity:1;vector-effect:none;fill:#555761;fill-opacity:1;stroke:none;stroke-width:1;stroke-linecap:round;stroke-linejoin:miter;stroke-miterlimit:4;stroke-dasharray:none;stroke-dashoffset:0;stroke-opacity:1;-inkscape-stroke:none;stop-color:#000000;stop-opacity:1"
     d="M 3.5,2 C 2.669,2 2,2.6690008 2,3.5 v 1 C 2,5.3309992 2.669,6 3.5,6 h 1 C 5.331,6 6,5.3309992 6,4.5 v -1 C 6,2.6690008 5.331,2 4.5,2 Z m 0,1 h 1 C 4.777,3 5,3.2230003 5,3.5 v 1 C 5,4.7769997 4.777,5 4.5,5 h -1 C 3.223,5 3,4.7769997 3,4.5 v -1 C 3,3.2230003 3.223,3 3.5,3 Z" /><path
     id="rect4646-8"
     style="font-variation-settings:normal;vector-effect:none;fill:#555761;fill-opacity:1;stroke:none;stroke-width:1;stroke-linecap:round;stroke-linejoin:miter;stroke-miterlimit:4;stroke-dasharray:none;stroke-dashoffset:0;stroke-opacity:1;-inkscape-stroke:none;stop-color:#000000"
     d="M 3.5,10 C 2.669,10 2,10.669001 2,11.5 v 1 C 2,13.330999 2.669,14 3.5,14 h 1 C 5.331,14 6,13.330999 6,12.5 v -1 C 6,10.669001 5.331,10 4.5,10 Z m 0,1 h 1 C 4.777,11 5,11.223 5,11.5 v 1 C 5,12.777 4.777,13 4.5,13 h -1 C 3.223,13 3,12.777 3,12.5 v -1 C 3,11.223 3.223,11 3.5,11 Z" /><path
     id="rect4646-6"
     style="font-variation-settings:normal;vector-effect:none;fill:#555761;fill-opacity:1;stroke:none;stroke-width:1;stroke-linecap:round;stroke-linejoin:miter;stroke-miterlimit:4;stroke-dasharray:none;stroke-dashoffset:0;stroke-opacity:1;-inkscape-stroke:none;stop-color:#000000"
     d="M 11.5,2 C 10.669,2 10,2.6690008 10,3.5 v 1 C 10,5.3309992 10.669,6 11.5,6 h 1 C 13.331,6 14,5.3309992 14,4.5 v -1 C 14,2.6690008 13.331,2 12.5,2 Z m 0,1 h 1 C 12.777,3 13,3.2230003 13,3.5 v 1 C 13,4.7769997 12.777,5 12.5,5 h -1 C 11.223,5 11,4.7769997 11,4.5 v -1 C 11,3.2230003 11.223,3 11.5,3 Z" /><path
     id="rect4646-8-8"
     style="font-variation-settings:normal;vector-effect:none;fill:#555761;fill-opacity:1;stroke:none;stroke-width:1;stroke-linecap:round;stroke-linejoin:miter;stroke-miterlimit:4;stroke-dasharray:none;stroke-dashoffset:0;stroke-opacity:1;-inkscape-stroke:none;stop-color:#000000"
     d="M 11.5,10 C 10.669,10 10,10.669001 10,11.5 v 1 c 0,0.830999 0.669,1.5 1.5,1.5 h 1 c 0.831,0 1.5,-0.669001 1.5,-1.5 v -1 C 14,10.669001 13.331,10 12.5,10 Z m 0,1 h 1 c 0.277,0 0.5,0.223 0.5,0.5 v 1 c 0,0.277 -0.223,0.5 -0.5,0.5 h -1 C 11.223,13 11,12.777 11,12.5 v -1 C 11,11.223 11.223,11 11.5,11 Z" /></svg>
